src/16/mimetypes/x-media-podcast.svg

<svg width="16" xmlns="http://www.w3.org/2000/svg" height="16" viewBox="0 0 16 16">
 <path fill="#8e44ad" d="m8 2c-1.662 0-3 1.338-3 3h2v1h-2v2h2v1h-1.818c.412 1.165 1.509 2 2.818 2 1.309 0 2.407-.835 2.818-2h-1.818v-1h2v-2h-2v-1h2c0-1.662-1.338-3-3-3m-4.9 7c.396 1.963 1.937 3.496 3.9 3.893v.107l-1 1h4l-1-1v-.107c1.963-.397 3.505-1.929 3.9-3.893h-1.039c-.444 1.726-1.993 3-3.861 3-1.869 0-3.418-1.274-3.861-3z"/>
</svg>

<svg width="16" xmlns="http://www.w3.org/2000/svg" height="16"><path fill="#8e44ad" d="M8 2C6.338 2 5 3.338 5 5h2v1H5v2h2v1H5.182a2.984 2.984 0 0 0 5.636 0H9V8h2V6H9V5h2c0-1.662-1.338-3-3-3M3.1 9A4.984 4.984 0 0 0 7 12.893V13l-1 1h4l-1-1v-.107A4.982 4.982 0 0 0 12.9 9h-1.039A3.982 3.982 0 0 1 8 12a3.98 3.98 0 0 1-3.861-3z"/></svg>
